Numix/16/mimetypes/text-x-gtkrc.svg

<?xml version="1.0" encoding="UTF-8" standalone="no"?>
<svg
   xmlns:dc="http://purl.org/dc/elements/1.1/"
   xmlns:cc="http://creativecommons.org/ns#"
   xmlns:rdf="http://www.w3.org/1999/02/22-rdf-syntax-ns#"
   xmlns:svg="http://www.w3.org/2000/svg"
   xmlns="http://www.w3.org/2000/svg"
   xmlns:sodipodi="http://sodipodi.sourceforge.net/DTD/sodipodi-0.dtd"
   xmlns:inkscape="http://www.inkscape.org/namespaces/inkscape"
   width="16"
   height="16"
   viewBox="0 0 16 16"
   id="svg2"
   version="1.1"
   inkscape:version="0.91 r13725"
   sodipodi:docname="text-x-gtkrc2.svg">
  <metadata
     id="metadata24">
    <rdf:RDF>
      <cc:Work
         rdf:about="">
        <dc:format>image/svg+xml</dc:format>
        <dc:type
           rdf:resource="http://purl.org/dc/dcmitype/StillImage" />
        <dc:title></dc:title>
      </cc:Work>
    </rdf:RDF>
  </metadata>
  <defs
     id="defs22" />
  <sodipodi:namedview
     pagecolor="#ffffff"
     bordercolor="#666666"
     borderopacity="1"
     objecttolerance="10"
     gridtolerance="10"
     guidetolerance="10"
     inkscape:pageopacity="0"
     inkscape:pageshadow="2"
     inkscape:window-width="1366"
     inkscape:window-height="704"
     id="namedview20"
     showgrid="false"
     inkscape:zoom="1"
     inkscape:cx="7.5784881"
     inkscape:cy="11.744486"
     inkscape:window-x="0"
     inkscape:window-y="27"
     inkscape:window-maximized="1"
     inkscape:current-layer="svg2"
     inkscape:object-nodes="true">
    <inkscape:grid
       type="xygrid"
       id="grid3012" />
  </sodipodi:namedview>
  <path
     style="fill:#dc322f;fill-opacity:1"
     d="M 2.667969,-4.455e-4 C 2.324219,-4.455e-4 2,0.3378125 2,0.6964472 L 2,15.303108 C 2,15.641365 2.34375,16 2.667969,16 l 10.664062,0 C 13.65625,16 14,15.641365 14,15.303108 L 14,3.9995543 10,-4.455e-4 z"
     id="path4-4"
     inkscape:connector-curvature="0"
     sodipodi:nodetypes="ssssssccs" />
  <path
     style="fill:#000000;fill-opacity:0.19599998"
     d="m 10.583223,3.3315853 0.0154,0.01953 0.04005,-0.01953 z m 0.02978,0.667969 3.387,3.664062 0,-3.664062 z"
     id="path6"
     inkscape:connector-curvature="0"
     sodipodi:nodetypes="cccccccc" />
  <g
     style="fill:#ffffff"
     id="g10"
     transform="matrix(1.3350716,0,0,1.3350716,-2.6805728,-3.0156444)" />
  <path
     style="fill:#ffffff;fill-opacity:0.39200003"
     d="m 10,-4.455e-4 3.996396,3.9999998 -3.383784,0 C 10.313513,3.9995543 10,3.6824373 10,3.3833383 z"
     id="path8"
     inkscape:connector-curvature="0"
     sodipodi:nodetypes="ccssc" />
  <path
     style="opacity:1;fill:#ffffff;fill-opacity:1;stroke:none;stroke-width:3;stroke-linecap:round;stroke-linejoin:round;stroke-miterlimit:4;stroke-dasharray:none;stroke-opacity:1"
     d="M 10 9 A 2 2 0 0 0 8 11 A 2 2 0 0 0 10 13 A 2 2 0 0 0 12 11 A 2 2 0 0 0 10 9 z M 10 9.75 A 1.25 1.25 0 0 1 11.25 11 A 1.25 1.25 0 0 1 10 12.25 A 1.25 1.25 0 0 1 8.75 11 A 1.25 1.25 0 0 1 10 9.75 z M 10 10.25 A 0.75 0.75 0 0 0 9.25 11 A 0.75 0.75 0 0 0 10 11.75 A 0.75 0.75 0 0 0 10.75 11 A 0.75 0.75 0 0 0 10 10.25 z "
     id="path4152" />
  <path
     style="opacity:1;fill:#ffffff;fill-opacity:1;stroke:none;stroke-width:3;stroke-linecap:round;stroke-linejoin:round;stroke-miterlimit:4;stroke-dasharray:none;stroke-opacity:1"
     d="M 5 9 C 4.446 9 4 9.446 4 10 L 4 12 C 4 12.554 4.446 13 5 13 L 7 13 C 7.554 13 8 12.554 8 12 L 8 10 C 8 9.446 7.554 9 7 9 L 5 9 z M 6.8339844 10 L 7.25 10.400391 L 5.5839844 12 L 4.75 11.199219 L 5.1660156 10.800781 L 5.5839844 11.199219 L 6.8339844 10 z "
     id="rect4160" />
  <path
     style="opacity:1;fill:#ffffff;fill-opacity:1;stroke:none;stroke-width:3;stroke-linecap:round;stroke-linejoin:round;stroke-miterlimit:4;stroke-dasharray:none;stroke-opacity:1"
     d="M 5 5 C 4.446 5 4 5.446 4 6 L 4 7 C 4 7.554 4.446 8 5 8 L 11 8 C 11.554 8 12 7.554 12 7 L 12 6 C 12 5.446 11.554 5 11 5 L 5 5 z M 4.5 5.5 L 9 5.5 L 9 7.5 L 4.5 7.5 L 4.5 5.5 z M 10 6 L 11 6 L 11 7 L 10 7 L 10 6 z "
     id="rect4168" />
</svg>

<svg xmlns="http://www.w3.org/2000/svg" viewBox="0 0 16 16">
 <path d="m 2.668 0 c -0.344 0 -0.668 0.338 -0.668 0.697 l 0 14.607 c 0 0.338 0.344 0.697 0.668 0.697 l 10.664 0 c 0.324 0 0.668 -0.359 0.668 -0.697 l 0 -11.304 -4 -4 z" style="fill:#dc322f;fill-opacity:1"/>
 <path d="m 10.583 3.332 0.015 0.02 0.04 -0.02 z m 0.03 0.668 3.387 3.664 0 -3.664 z" style="fill:#000;fill-opacity:0.196"/>
 <path d="m 10 0 3.996 4 -3.384 0 c -0.299 0 -0.613 -0.317 -0.613 -0.616 z" style="fill:#fff;fill-opacity:0.392"/>
 <path d="M 10 9 A 2 2 0 0 0 8 11 A 2 2 0 0 0 10 13 A 2 2 0 0 0 12 11 A 2 2 0 0 0 10 9 z M 10 9.75 A 1.25 1.25 0 0 1 11.25 11 A 1.25 1.25 0 0 1 10 12.25 A 1.25 1.25 0 0 1 8.75 11 A 1.25 1.25 0 0 1 10 9.75 z M 10 10.25 A 0.75 0.75 0 0 0 9.25 11 A 0.75 0.75 0 0 0 10 11.75 A 0.75 0.75 0 0 0 10.75 11 A 0.75 0.75 0 0 0 10 10.25 z" style="fill:#fff;opacity:1;fill-opacity:1;stroke:none"/>
 <path d="m 5 9 c -0.554 0 -1 0.446 -1 1 l 0 2 c 0 0.554 0.446 1 1 1 l 2 0 c 0.554 0 1 -0.446 1 -1 l 0 -2 c 0 -0.554 -0.446 -1 -1 -1 l -2 0 z m 1.834 1 l 0.416 0.4 l -1.666 1.6 l -0.834 -0.801 l 0.416 -0.398 l 0.418 0.398 l 1.25 -1.199 z" style="fill:#fff;opacity:1;fill-opacity:1;stroke:none"/>
 <path d="m 5 5 c -0.554 0 -1 0.446 -1 1 l 0 1 c 0 0.554 0.446 1 1 1 l 6 0 c 0.554 0 1 -0.446 1 -1 l 0 -1 c 0 -0.554 -0.446 -1 -1 -1 l -6 0 z m -0.5 0.5 l 4.5 0 l 0 2 l -4.5 0 l 0 -2 z m 5.5 0.5 l 1 0 l 0 1 l -1 0 l 0 -1 z" style="fill:#fff;opacity:1;fill-opacity:1;stroke:none"/>
</svg>
